adaptive-icons/Test-Icons--V5/editing/plus-filled-64.svg

<svg height="64" viewBox="0 0 64 64" width="64" xmlns="http://www.w3.org/2000/svg"><g fill="none" fill-rule="evenodd"><path d="m32 5.333c-14.728 0-26.667 11.939-26.667 26.667s11.939 26.667 26.667 26.667 26.667-11.939 26.667-26.667-11.939-26.667-26.667-26.667zm13.333 32h-8v8a5.339 5.339 0 0 1 -5.333 5.334 5.339 5.339 0 0 1 -5.333-5.334v-8h-8a5.339 5.339 0 0 1 -5.334-5.333 5.339 5.339 0 0 1 5.334-5.333h8v-8a5.339 5.339 0 0 1 5.333-5.334 5.339 5.339 0 0 1 5.333 5.334v8h8a5.339 5.339 0 0 1 5.334 5.333 5.339 5.339 0 0 1 -5.334 5.333z" fill="#282d37" fill-rule="nonzero"/><path d="m58.667 32c0 14.728-11.939 26.667-26.667 26.667s-26.667-11.939-26.667-26.667 11.939-26.667 26.667-26.667 26.667 11.939 26.667 26.667zm-21.334 13.333v-8h8a5.339 5.339 0 0 0 5.334-5.333 5.339 5.339 0 0 0 -5.334-5.333h-8v-8a5.339 5.339 0 0 0 -5.333-5.334 5.339 5.339 0 0 0 -5.333 5.334v8h-8a5.339 5.339 0 0 0 -5.334 5.333 5.339 5.339 0 0 0 5.334 5.333h8v8a5.339 5.339 0 0 0 5.333 5.334 5.339 5.339 0 0 0 5.333-5.334z" stroke="#282d37" stroke-linecap="round" stroke-width="4.5"/></g></svg>

<svg xmlns="http://www.w3.org/2000/svg" id="3" width="64" height="64" viewBox="0 0 64 64"><g fill="none" fill-rule="evenodd" class="page-1"><g class="plus"><path fill="#282D37" fill-rule="nonzero" d="M32 5.333C17.272 5.333 5.333 17.272 5.333 32c0 14.728 11.939 26.667 26.667 26.667 14.728 0 26.667-11.939 26.667-26.667C58.667 17.272 46.728 5.333 32 5.333Zm13.333 32h-8v8A5.339 5.339 0 0 1 32 50.667a5.339 5.339 0 0 1-5.333-5.334v-8h-8A5.339 5.339 0 0 1 13.333 32a5.339 5.339 0 0 1 5.334-5.333h8v-8A5.339 5.339 0 0 1 32 13.333a5.339 5.339 0 0 1 5.333 5.334v8h8A5.339 5.339 0 0 1 50.667 32a5.339 5.339 0 0 1-5.334 5.333Z" class="fill"/><path stroke="#282D37" stroke-linecap="round" stroke-width="4.5" d="M58.667 32c0 14.728-11.939 26.667-26.667 26.667C17.272 58.667 5.333 46.728 5.333 32 5.333 17.272 17.272 5.333 32 5.333c14.728 0 26.667 11.939 26.667 26.667ZM37.333 45.333v-8h8A5.339 5.339 0 0 0 50.667 32a5.339 5.339 0 0 0-5.334-5.333h-8v-8A5.339 5.339 0 0 0 32 13.333a5.339 5.339 0 0 0-5.333 5.334v8h-8A5.339 5.339 0 0 0 13.333 32a5.339 5.339 0 0 0 5.334 5.333h8v8A5.339 5.339 0 0 0 32 50.667a5.339 5.339 0 0 0 5.333-5.334Z" class="stroke"/></g></g></svg>
